!!!id: 17xx:439
!!!COM: Lechleitner, Ferdinand Simon
!!!!SEGMENT: pl-sa--288-a-vii-48--004_lechleitner-ferdinand-simon-litania-de-b-v-mariae-speculum-iustitiae.krn
!!!OTL: Litania de B.V. Mariae – Speculum iustitiae
!!!PDT: 1741
!!!SMS-siglum: PL-SA
!!!SMS-shelfmark: 288/A VII 48
!!!NIFC-rismID: 1001039077
!!!URL-scan: http://bc.bdsandomierz.pl/dlibra/publication/1784/edition/1752/content
!!!ONB-nifc: UWAGA: części Litanii: Kyrie, Sancta Maria, Virgo prudentissima,
**kern	**fba	**kern	**kern	**kern	**text	**kern	**text	**kern	**text	**kern	**text	**kern	**kern
*part9	*	*part8	*part7	*part6	*part6	*part5	*part5	*part4	*part4	*part3	*part3	*part2	*part1
*staff9	*	*staff8	*staff7	*staff6	*staff6	*staff5	*staff5	*staff4	*staff4	*staff3	*staff3	*staff2	*staff1
*I"Viola Basso	*	*I"Violino 2do	*I"Violino 1mo	*I"Bafso	*	*I"Tenore	*	*I"Alto	*	*I"Canto	*	*I"Clarino 2do ex B	*I"Clarino Imo ex B
*I'VB	*	*I'Vno II	*I'Vno I	*I'B	*	*I'T	*	*I'A	*	*I'C	*	*I'Clar II	*I'Clar I
*clefF4	*	*clefG2	*clefG2	*clefF4	*	*clefC4	*	*clefC3	*	*clefC1	*	*clefG2	*clefG2
*	*	*	*	*	*	*	*	*	*	*	*	*ITrd1c2	*ITrd1c2
*k[b-e-]	*	*k[b-e-]	*k[b-e-]	*k[b-e-]	*	*k[b-e-]	*	*k[b-e-]	*	*k[b-e-]	*	*k[b-e-]	*k[b-e-]
*M6/8	*	*M6/8	*M6/8	*M6/8	*	*M6/8	*	*M6/8	*	*M6/8	*	*M6/8	*M6/8
=1	=1	=1	=1	=1	=1	=1	=1	=1	=1	=1	=1	=1	=1
!LO:SIC:o=:v:wszystkie laski przy nutach z pr. str.	!	!	!LO:SIC:o=:v:wszystkie laski przy nutach z pr. str.	!	!	!	!	!	!	!	!	!	!
!LO:TX:a:t=Vivace	!	!LO:TX:a:t=Vivace	!LO:TX:b:i:t=Speculum.	!LO:TX:a:t=Vivace	!	!LO:TX:a:t=Vivace	!	!LO:TX:a:t=Vivace	!	!LO:TX:a:t=Vivace	!	!LO:TX:a:t=Vivace	!LO:TX:b:i:t=Speculum.
!LO:TX:b:i:t=Speculum.	!	!LO:TX:b:i:t=Speculum.	!LO:TX:a:t=Vivace	!LO:SIC:o=:v:wszystkie laski przy nutach z pr. str.	!	!LO:SIC:o=:v:wszystkie laski przy nutach z pr. str.	!	!LO:SIC:o=:v:wszystkie laski przy nutach z pr. str.	!	!LO:SIC:o=:v:wszystkie laski przy nutach z pr. str.	!	!LO:TX:b:i:t=Speculum.	!LO:TX:a:t=Vivace
8.BB-/L	.	8.dd\L	8.ff\L	8.BB-/	Spe-	8.B-\	Spe-	8.f\	Spe-	8.dd\	Spe-	8.d/L	8.b-\L
16BB-/K	.	16dd\K	16ff\K	16BB-/	-cu-	16B-\	-cu-	16f\	-cu-	16dd\	-cu-	16d/K	16b-\K
8BB-/J	.	8dd\J	8ff\J	8BB-/	-lum	8B-\	-lum	8f\	-lum	8dd\	-lum	8d/J	8b-\J
!	!	!LO:LB:g=original	!	!	!	!	!	!	!	!	!	!	!
*	*	*	*	*	*ij	*	*ij	*	*ij	*	*ij	*	*
8.F\L	.	16cc\LL	16aa\LL	8.F\	spe-	8.A/	spe-	8.f\	spe-	8.cc\	spe-	8.f/L	8.cc\L
.	.	16b-\	16gg\	.	.	.	.	.	.	.	.	.	.
.	.	16a\	16ff\	.	.	.	.	.	.	.	.	.	.
16F\K	.	16b-\J	16gg\J	16F\	-cu-	16A/	-cu-	16f\	-cu-	16cc\	-cu-	16f/K	16cc\K
8F\J	.	8cc\J	8aa\J	8F\	-lum	8A/	-lum	8f\	-lum	8cc\	-lum	8f/J	8cc\J
*	*	*	*	*	*Xij	*	*Xij	*	*Xij	*	*Xij	*	*
!	!	!	!	!	!	!	!	!	!	!LO:LB:g=original	!	!	!
=2	=2	=2	=2	=2	=2	=2	=2	=2	=2	=2	=2	=2	=2
8D\L	6	8dd\L	8ff\L	8D\	Ius-	8G/	Ius-	8f\	Ius-	8b-\	Ius-	16b-\LL	16dd\LL
.	.	.	.	.	.	.	.	.	.	.	.	16dd\	16ff\
8E-\	6	8cc\	8gg\	8E-\	-ti-	8c\	-ti-	8g\	-ti-	8cc\	-ti-	16cc\	16ee-\
.	.	.	.	.	.	.	.	.	.	.	.	16b-\J	16dd\J
8F\J	.	8cc\J	8ff\J	8F\	-ti-	8c\	-ti-	8f\	-ti-	8a\	-ti-	8f\J	8cc\J
!	!	!	!	!	!	!	!	!LO:LB:g=original	!	!	!	!	!
!LO:TX:a:t=P:mixed beam:problem	!	!	!	!	!	!	!	!	!	!	!	!LO:TX:a:t=P:mixed beam:problem	!
8BB-/L	.	8dd\L	8ff\L	8BB-/	-ae	8d\	-ae	8f\	-ae	8b-,<\	-ae	8d/L	8b-\L
!	!	!	!	!	!	!LO:LB:g=original	!	!	!	!	!	!	!
8B-\	.	16dd\L	16b-\L	8B-\	Se-	8c\	Se-	8d\	Se-	8dd\	Se-	8dd\	8ff\
.	.	16cc\	16cc\	.	.	.	.	.	.	.	.	.	.
8A\J	6	16b-\	16dd\	8A\	-des	8d\	-des	8f\	-des	8cc\	-des	8cc\J	8ff\J
.	.	16cc\JJ	16ee-\JJ	.	.	.	.	.	.	.	.	.	.
=3	=3	=3	=3	=3	=3	=3	=3	=3	=3	=3	=3	=3	=3
4G\	7	8dd\L	8ff\L	4G\	sa-	(8d\L	sa-	(8f\L	sa-	16b-\LL	sa-	8dd\L	8ff\L
.	.	.	.	.	.	.	.	.	.	16cc\	.	.	.
.	6\	8b-\	8een\	.	.	8B-\J)	.	8en\J)	.	16dd\	.	8b-\	8eenX\
.	.	.	.	.	.	.	.	.	.	16een\JJ	.	.	.
8F\	.	8cc\J	8ff\J	8F\	-pi-	8A/	-pi-	8f\	-pi-	8cc\	-pi-	8cc\J	8ff\J
8B-\L	.	8dd\L	16ff\LL	(8B-\L	-en-	4B-\	-en-	(4f\	-en-	4dd\	-en-	8dd\L	8ff\L
.	.	.	16ff\	.	.	.	.	.	.	.	.	.	.
8G\	7	8dd\	16ff\	8G\J)	.	.	.	.	.	.	.	8dd\	8.ff\
.	.	.	16ff\	.	.	.	.	.	.	.	.	.	.
8c\J	n	8cc\J	16een\	8c\	-ti-	8G/	-ti-	8en\)	-ti-	8cc\	-ti-	16cc\L	.
.	.	.	16ee\JJ	.	.	.	.	.	.	.	.	16cc\JJ	16eenX\Jk
=4	=4	=4	=4	=4	=4	=4	=4	=4	=4	=4	=4	=4	=4
8F\L	.	8cc\L	16ff\LL	8F\	-ae	8.A/	-ae	8f\	-ae	8cc,<\	-ae	8cc\L	8ff\L
.	.	.	16ff\	.	.	.	.	.	.	.	.	.	.
8F\	.	16ff\L	16aa\	8F\	o-	.	.	8a\	o-	8cc\	o-	8f\	8cc\
.	.	16ff\	16aa\	.	.	16A/	o-	.	.	.	.	.	.
8F\J	.	16cc\	16aa\	8F\	-ra	8A/	-ra	8a\	-ra	8cc\	-ra	8f\J	8cc\J
.	.	16cc\JJ	16aa\JJ	.	.	.	.	.	.	.	.	.	.
!	!	!	!LO:LB:g=original	!	!	!	!	!	!	!	!	!	!
8En\L	6	16cc\LL	16gg\LL	8En\L	o-	4c\	o-	8g\L	o-	(16cc\LL	o-	8cc\L	8cc\L
.	.	16cc\	16ff\	.	.	.	.	.	.	16b-\	.	.	.
8C\	.	16een\	16gg\	8C\J	.	.	.	8en\J	.	16cc\	.	16cc\L	16cc\L
.	.	16ee\	16een\	.	.	.	.	.	.	16b-\JJ)	.	16cc\	16cc\
8F\J	.	16ff\	16aa\	8F\	-ra	8c\	-ra	8f\	-ra	8a\	-ra	16cc\	16cc\
.	.	16ff\JJ	16aa\JJ	.	.	.	.	.	.	.	.	16cc\JJ	16cc\JJ
!	!	!	!	!LO:LB:g=original	!	!	!	!	!	!	!	!	!
=5	=5	=5	=5	=5	=5	=5	=5	=5	=5	=5	=5	=5	=5
8BB-/L	6 5	16dd\LL	16gg\LL	8B-\	pro-	8d\	pro-	8f\	pro-	8g/	pro-	8dd\L	8dd\L
.	.	16dd\	16gg\	.	.	.	.	.	.	.	.	.	.
!	!	!	!	!LO:TX:a:t=P:mixed beam:problem	!	!	!	!	!	!	!	!	!
8C/	.	16ff\	16gg\	8c\L	-no-	4c\	-no-	8f\L	-no-	4g/	-no-	16cc\L	16cc\L
.	.	16ff\	16gg\	.	.	.	.	.	.	.	.	16cc\	16cc\
8CC/J	4	16een\	16gg\	8C/J	.	.	.	8en\J	.	.	.	16cc\	16cc\
.	3	16ee\JJ	16gg\JJ	.	.	.	.	.	.	.	.	16cc\JJ	16cc\JJ
.	n	.	.	.	.	.	.	.	.	.	.	.	.
!LO:TX:a:t=P:mixed beam:problem	!	!	!	!	!	!	!	!	!	!	!	!	!LO:TX:a:t=P:mixed beam:problem
8FF/L	.	16ff\LL	16aa\LL	8F\	-bis	8c\	-bis	8f\	-bis	8f,</	-bis	8cc\L	8cc\L
.	.	16cc\	16ff\	.	.	.	.	.	.	.	.	.	.
8F\	.	16a\	16cc\	8F\	Cau-	8f\	Cau-	8a\	Cau-	8cc\	Cau-	8f\	8f/
.	.	16cc\	16ff\	.	.	.	.	.	.	.	.	.	.
8F/J	.	16f\	16a\	8F\	-s	8c\	-sa	8a\	-sa	8ff\	-sa	8f\J	8f/J
.	.	16cc\JJ	16ff\JJ	.	.	.	.	.	.	.	.	.	.
=6	=6	=6	=6	=6	=6	=6	=6	=6	=6	=6	=6	=6	=6
*	*	*	*	*	*ij	*	*	*	*	*	*	*	*
4F\	.	16b-\LL	16dd\LL	4F\	cau-	4B-\	nos-	4f\	cau-	(8dd\L	Cau-	16f/LL	16f/LL
.	.	16dd\	16ff\	.	.	.	.	.	.	.	.	16f/	32f/L
.	.	.	.	.	.	.	.	.	.	.	.	.	32f/J
.	.	16ff\	16b-\	.	.	.	.	.	.	16ee-\L	.	16f/	16f/
.	.	16dd\	16ff\	.	.	.	.	.	.	16dd\JJ)	.	16f/	16f/
8F\	6 4	16ff\	16aa\	8F\	-sa	8A/	-trae	8a\	-sa	8cc\	-sa	16f/	16f/
.	5 3	16cc\JJ	16ff\JJ	.	.	.	.	.	.	.	.	16f/JJ	16f/JJ
8r	.	16dd\LL	16ff\LL	8r	.	8r	.	8r	.	8r	.	8d/L	8d/L
.	.	16dd\	16ff\	.	.	.	.	.	.	.	.	.	.
*	*	*	*	*	*Xij	*	*	*	*	*	*	*	*
8B-\L	.	16ff\	16dd\	8B-\	Cau-	8B-\	Cau-	8f\	cau-	8dd\	Cau-	8B-/	8B-/
.	.	16dd\	16ff\	.	.	.	.	.	.	.	.	.	.
8B-\J	.	16ff\	16b-\	8B-\	-sa	8B-\	-sa	8f\	-sa	8dd\	-sa	8B-/J	8B-/J
.	.	16dd\JJ	16ff\JJ	.	.	.	.	.	.	.	.	.	.
!LO:PB:g=original	!	!LO:LB:g=original	!	!	!	!	!	!	!	!LO:LB:g=original	!	!	!
=7	=7	=7	=7	=7	=7	=7	=7	=7	=7	=7	=7	=7	=7
*	*	*	*	*	*ij	*	*	*	*ij	*	*	*	*
4B-\	.	16ee-\LL	16gg\LL	4B-\	cau-	4B-\	Cau-	8g\L	cau-	8ee-\L	Cau-	16B-/LL	16B-/LL
.	.	16gg\	16ee-\	.	.	.	.	.	.	.	.	16B-/	32B-/L
.	.	.	.	.	.	.	.	.	.	.	.	.	32B-/J
.	.	16gg\	16b-\	.	.	.	.	16a\L	.	16ff\L	.	16B-/	16B-/
.	.	16ee-\	16gg\	.	.	.	.	16g\JJ	.	16ee-\JJ	.	16B-/	16B-/
8B-\	6 5	16dd\	16ff\	8B-\	-sa	8B-\	-sa	8f\	-sa	8dd\	-sa	16B-/	16B-/
.	5 n	16dd\JJ	16ff\JJ	.	.	.	.	.	.	.	.	16B-/JJ	16B-/JJ
*	*	*	*	*	*Xij	*	*	*	*Xij	*	*	*	*
!	!	!	!	!	!	!	!	!LO:LB:g=original	!	!	!	!	!
8B-\L	4 2	16ee-\LL	16gg\LL	8B-\	nos-	8c\	nos-	8e-\	nos-	8cc\	nos-	8B-/L	8B-/L
.	.	16ee-\	16gg\	.	.	.	.	.	.	.	.	.	.
16A\L	6	16ff\	16aa\	16A\LL	-trae	(16B-\LL	-trae	8f\	-trae	(16cc\LL	-trae	16f/L	8f/
16G\	.	16gg\	16bb-\	16G\JJ	.	16c\JJ)	.	.	.	16b-\JJ)	.	16f/	.
16A\	.	16ff\	16aa\	16A\LL	lae-	8A/	lae-	8f\	lae-	8cc\	lae-	16f/	8f/J
16F\JJ	.	16cc\JJ	16aa\JJ	16F\JJ	.	.	.	.	.	.	.	16f/JJ	.
!	!	!	!	!	!	!LO:LB:g=original	!	!	!	!	!	!LO:LB:g=original	!LO:LB:g=original
=8	=8	=8	=8	=8	=8	=8	=8	=8	=8	=8	=8	=8	=8
8.B-\L	.	16dd\LL	16ff\LL	8.B-\	-ti-	8.B-\	-ti-	8.f\	-ti-	8.dd\	-ti-	8f/L	8f/L
.	.	16dd\	16ff\	.	.	.	.	.	.	.	.	.	.
.	.	16b-\	16dd\	.	.	.	.	.	.	.	.	16f/L	16f/L
16B-\K	.	16dd\	16ff\	16B-\	-ti-	16B-\	-ti-	16f\	-ti-	16dd\	-ti-	16f/	16f/
8B-\J	.	16ff\	16b-\	8B-\	-ae	8B-\	-ae	8f\	-ae	8dd\	-ae	16d/	16f/
.	.	16b-\JJ	16dd\JJ	.	.	.	.	.	.	.	.	16d/JJ	16f/JJ
!	!	!LO:TX:a:t=P:mixed beam:problem	!	!	!	!	!	!	!	!	!	!	!
8r	.	16dd\LL	16ff\LL	8r	.	8r	.	8r	.	8r	.	8B-/	8d/
.	.	16d/	16b-\	.	.	.	.	.	.	.	.	.	.
8D/L	6	16b-\	16ff\	8D/	o-	8B-\	o-	8f\	o-	8dd\	o-	8r	8r
.	.	16b-\	16ff\	.	.	.	.	.	.	.	.	.	.
8BB-/J	.	16dd\	16ff\	8BB-/	-ra	8B-\	-ra	8f\	-ra	8dd\	-ra	8r	8r
.	.	16dd\JJ	16ff\JJ	.	.	.	.	.	.	.	.	.	.
!	!	!	!LO:LB:g=original	!	!	!	!	!	!	!	!	!	!
=9	=9	=9	=9	=9	=9	=9	=9	=9	=9	=9	=9	=9	=9
!	!	!	!	!	!	!	!	!	!	!	!	!	!LO:TX:a:t=1
16E-\LL	.	8ee-\L	16gg\LL	16E-\LL	o-	4B-\	o-	16g\LL	o-	(8.b-\L	o-	2.r	2.r
16D\	.	.	16ff\	16D\	.	.	.	16f\	.	.	.	.	.
16E-\	.	16b-\L	16gg\	16E-\	.	.	.	16g\	.	.	.	.	.
16F\	.	16a\	16ff\	16F\JJ	.	.	.	16f\JJ	.	16a\Jk)	.	.	.
16G\	.	16b-\	16ee-\	(16G\LL	-ra	8B-\	-ra	(16e-\LL	-ra	(16b-\LL	-ra	.	.
16A\JJ	.	16cc\JJ	16ff\JJ	16A\JJ)	.	.	.	16f\JJ)	.	16cc\JJ)	.	.	.
8B-\L	.	16dd\LL	16ff\LL	8B-\	pro-	8B-\	pro-	8f\	pro-	8dd\	pro-	.	.
.	.	16dd\	16ff\	.	.	.	.	.	.	.	.	.	.
8E-\	6 5	16ee-\	16gg\	(8E-\L	-no-	(8B-\L	-no-	(8g\L	-no-	4cc\	-no-	.	.
.	.	16ee-\	16gg\	.	.	.	.	.	.	.	.	.	.
8F\J	.	16cc\	16ff\	8F\J)	.	8A\J)	.	8f\J)	.	.	.	.	.
.	.	16cc\JJ	16ff\JJ	.	.	.	.	.	.	.	.	.	.
=10	=10	=10	=10	=10	=10	=10	=10	=10	=10	=10	=10	=10	=10
!LO:TX:a:t=P:mixed beam:problem	!	!	!	!	!	!	!	!	!	!	!	!	!
8BB-/L	.	16dd\LL	16ff\LL	8BB-/	-bis	8B-\	-bis	8f\	-bis	8b-\	-bis	8r	8r
.	.	16b-\	16dd\	.	.	.	.	.	.	.	.	.	.
8B-\	.	16dd\	16ff\	8B-\	o-	8d\	o-	8f\	o-	8b-\	o-	8b-\L	8dd\L
.	.	16dd\	16ff\	.	.	.	.	.	.	.	.	.	.
8F\J	.	16ff\	16aa\	8F\	-ra	8c\	-ra	8f\	-ra	8a\	-ra	8cc\J	8ff\J
.	.	16ff\JJ	16aa\JJ	.	.	.	.	.	.	.	.	.	.
8G\L	.	16dd\LL	16gg\LL	8G\L	o-	(8B-\L	o-	(8.d\L	o-	(8g\L	o-	8b-\L	8dd\L
.	.	16dd\	16gg\	.	.	.	.	.	.	.	.	.	.
16F\L	.	16ff\	16aa\	16F\L	.	8c\J)	.	.	.	8a\J)	.	8cc\	16dd\L
16E-\J	.	16cc\	16gg\	16E-\JJ	.	.	.	16e-\Jk)	.	.	.	.	16ee-\J
8D\J	6	16dd\	16ff\	8D/	-ra	8d\	-ra	8f\	-ra	8b-\	-ra	8dd\J	8ff\J
.	.	16dd\JJ	16ff\JJ	.	.	.	.	.	.	.	.	.	.
!	!	!	!	!LO:PB:g=original	!	!	!	!	!	!	!	!	!
=11	=11	=11	=11	=11	=11	=11	=11	=11	=11	=11	=11	=11	=11
!	!	!	!	!	!	!	!	!	!	!	!	!LO:TX:a:t=P:mixed beam:problem	!
8E-\L	.	16b-\LL	16gg\LL	8E-/L	o-	8.B-\L	o-	8g\L	o-	8.b-\L	o-	8b-\L	8ee-\L
.	.	16b-\	16gg\	.	.	.	.	.	.	.	.	.	.
16D\L	6	16b-\	16ff\	16D/L	.	.	.	16f\L	.	.	.	16d/L	16b-\L
16C\J	6	16cc\	16ee-\	16C/JJ	.	16c\Jk	.	16e-\JJ	.	16a\Jk	.	16f/J	16cc\J
8BB-\J	.	16cc\	16dd\	8BB-/	-ra	8d\	-ra	8f\	-ra	8b-\	-ra	8b-/J	8dd\J
.	.	16dd\JJ	16ff\JJ	.	.	.	.	.	.	.	.	.	.
!LO:TX:a:t=P:mixed beam:problem	!	!	!	!	!	!	!	!	!	!	!	!	!
8E-\L	6 5	16ee-\LL	16gg\LL	8E-\	pro-	8c\	pro-	8g\	pro-	16cc\LL	pro-	8f/L	8cc\L
.	.	16ee-\	16gg\	.	.	.	.	.	.	16b-\JJ	.	.	.
!	!	!	!	!LO:TX:a:t=P:mixed beam:problem	!	!	!	!	!	!	!	!	!
8F\	4	16cc\	16ff\	(8F\L	-no-	4c\	-no-	4f\	-no-	(8b-\L	-no-	16f/L	8.ccM\
.	3	16cc\	16ff\	.	.	.	.	.	.	.	.	16f/	.
8FF/J	.	16cc\	16ff\	8FF/J)	.	.	.	.	.	8a\J)	.	16f/	.
.	.	16cc\JJ	16ff\JJ	.	.	.	.	.	.	.	.	16f/JJ	16b-\Jk
!	!	!LO:LB:g=original	!	!	!	!	!	!	!	!LO:LB:g=original	!	!	!
=12	=12	=12	=12	=12	=12	=12	=12	=12	=12	=12	=12	=12	=12
!	!	!	!	!	!	!	!	!	!	!	!	!LO:TX:a:t=S.	!
!	!	!	!	!	!	!	!	!	!	!	!	!LO:TX:a:t=P:mixed beam:problem	!
8BB-/	.	8dd\L	8ff\L	8BB-/	-bis	8d\	-bis	8f\	-bis	8b-\	-bis	8d/L	8b-\L
!	!	!	!	!	!	!	!	!	!	!	!	!	!LO:TX:a:t=Solo
8r	.	8b-\	8dd\	8r	.	8r	.	8r	.	8r	.	8b-\	8dd\
8r	.	8cc\J	8ee-\J	8r	.	8r	.	8r	.	8r	.	8cc\J	8ee-\J
!LO:TX:b:t=Solo	!	!	!	!LO:N:vis=2	!	!LO:N:vis=2	!	!LO:N:vis=2	!	!LO:N:vis=2	!	!	!
8BB-/L	.	16dd\LL	16ff\LL	4.r	.	4.r	.	4.r	.	4.r	.	16dd\LL	16ff\LL
.	.	16cc\	16ee-\	.	.	.	.	.	.	.	.	16cc\	16ee-\
8C/	6	16b-\	16dd\	.	.	.	.	.	.	.	.	16b-\	16dd\
.	.	16a\J	16cc\J	.	.	.	.	.	.	.	.	16f\J	16cc\J
8D/J	6	8b-\J	8b-\J	.	.	.	.	.	.	.	.	8d\J	8b-\J
!LO:LB:g=original	!	!	!	!	!	!	!	!LO:PB:g=original	!	!	!	!	!
=13	=13	=13	=13	=13	=13	=13	=13	=13	=13	=13	=13	=13	=13
!LO:TX:a:t=P:mixed beam:problem	!	!	!	!	!	!	!	!	!	!	!	!	!
!	!	!	!	!LO:N:vis=00	!	!LO:N:vis=00	!	!LO:N:vis=00	!	!LO:N:vis=0	!	!	!
8E-\L	.	8ee-\L	8gg\L	0.r	.	0.r	.	0.r	.	1.r	.	8ee-\L	8gg\L
8F\	6 4	8dd\	8ff\	.	.	.	.	.	.	.	.	8dd\	8ff\
8FF/J	5 3	8cc\J	8ee-\J	.	.	.	.	.	.	.	.	8cc\J	8ee-\J
4BB-/	.	16b-\LL	8dd\L	.	.	.	.	.	.	.	.	16b-\LL	16dd\LL
.	.	16dd\	.	.	.	.	.	.	.	.	.	16dd\	16ff\
.	.	16cc\	16ff\L	.	.	.	.	.	.	.	.	16cc\	16ee-\
.	.	16b-\J	16ee-\	.	.	.	.	.	.	.	.	16b-\J	16dd\J
8F\	.	8a\J	16dd\	.	.	.	.	.	.	.	.	8f\J	8cc\J
.	.	.	16cc\JJ	.	.	.	.	.	.	.	.	.	.
=14	=14	=14	=14	=14	=14	=14	=14	=14	=14	=14	=14	=14	=14
!LO:TX:a:t=P:mixed beam:problem	!	!	!	!	!	!	!	!	!	!	!	!	!
8D\L	6	8r	8r	.	.	.	.	.	.	.	.	8b-\L	8dd\L
8F\	.	16a/LL	16cc\LL	.	.	.	.	.	.	.	.	8f\J	8cc\J
.	.	16f/	16a\	.	.	.	.	.	.	.	.	.	.
8FF/J	.	16g/	16b-\	.	.	.	.	.	.	.	.	8r	8r
.	.	16a/JJ	16cc\JJ	.	.	.	.	.	.	.	.	.	.
!	!	!	!LO:LB:g=original	!	!	!	!	!	!	!	!	!	!
4BB-/	.	16f/LL	16dd\LL	.	.	.	.	.	.	.	.	8r	8r
.	.	16e-/	16cc\	.	.	.	.	.	.	.	.	.	.
.	.	16f/	16dd\	.	.	.	.	.	.	.	.	8r	8r
.	.	16e-/	16cc\	.	.	.	.	.	.	.	.	.	.
!	!	!	!	!	!	!	!	!	!	!	!	!LO:SIC:o=:v:ogonek w lw. str.	!LO:SIC:o=:v:ogonek w lw. str.
8B-\	.	16d/	16b-\	.	.	.	.	.	.	.	.	8b-\	8dd\
.	.	16b-/JJ	16dd\JJ	.	.	.	.	.	.	.	.	.	.
=15	=15	=15	=15	=15	=15	=15	=15	=15	=15	=15	=15	=15	=15
8A\L	6 5	16cc\LL	16ee-\LL	.	.	.	.	.	.	2.r	.	16cc\LL	16ee-\LL
.	.	16b-\	16dd\	.	.	.	.	.	.	.	.	16b-\	16dd\
8A\	.	16cc\	16ee-\	.	.	.	.	.	.	.	.	16cc\	16ee-\
.	.	16b-\	16dd\	.	.	.	.	.	.	.	.	16b-\	16dd\
8A\J	.	16a\	16cc\	.	.	.	.	.	.	.	.	16f\	16cc\
.	.	16cc\JJ	16ee-\JJ	.	.	.	.	.	.	.	.	16cc\JJ	16ee-\JJ
!	!	!	!	!	!	!	!	!	!	!	!	!LO:LB:g=original	!
!	!	!LO:TX:a:t=P:mixed beam:problem	!	!	!	!	!	!	!	!	!	!	!
4B-\	.	16b-\LL	16dd\LL	.	.	.	.	.	.	.	.	16b-\LL	16dd\LL
.	.	16cc\	16ee-\	.	.	.	.	.	.	.	.	16cc\	16ee-\
.	.	16b-\	16dd\	.	.	.	.	.	.	.	.	16b-\	16dd\
.	.	16cc\	16ee-\	.	.	.	.	.	.	.	.	16cc\J	16ee-\J
8D/	6	16dd\	16ff\	.	.	.	.	.	.	.	.	8dd\J	8ff\J
.	.	16f/JJ	16b-\JJ	.	.	.	.	.	.	.	.	.	.
!	!	!	!	!	!	!	!	!	!	!	!	!	!LO:LB:g=original
=16	=16	=16	=16	=16	=16	=16	=16	=16	=16	=16	=16	=16	=16
!LO:TX:a:t=P:mixed beam:problem	!	!	!LO:TX:a:t=P:mixed beam:problem	!	!	!	!	!	!	!LO:N:vis=2	!	!	!
8E-\L	6	8g/L	8cc\L	.	.	.	.	.	.	4.r	.	16cc\LL	16ee-\LL
.	.	.	.	.	.	.	.	.	.	.	.	16b-\	16dd\J
8F\	4	8c/	8f/	.	.	.	.	.	.	.	.	16b-\	8dd\
.	.	.	.	.	.	.	.	.	.	.	.	16f\	.
8FF/J	3	8f/J	8a/J	.	.	.	.	.	.	.	.	16f\	16cc\L
.	.	.	.	.	.	.	.	.	.	.	.	16f\JJ	16b-\JJ
!	!	!	!	!	!	!	!	!	!	!	!	!	!LO:SIC:o=:v:ogonek w lw. str.
8BB-/L	.	8f/	8b-/	.	.	.	.	.	.	8r	.	8d/	8b-\
8BB-/	.	8r	8r	.	.	.	.	.	.	8dd\	Vas	8r	8r
8C/J	.	8r	8r	.	.	.	.	.	.	8ee-\	Spi-	8r	8r
=17	=17	=17	=17	=17	=17	=17	=17	=17	=17	=17	=17	=17	=17
!	!	!	!LO:N:vis=00	!LO:N:vis=00	!	!	!	!LO:N:vis=00	!	!	!	!LO:N:vis=00	!LO:N:vis=00
4D/	.	0.r	0.r	0.r	.	2.r	.	0.r	.	16ff\LL	-ri-	0.r	0.r
.	.	.	.	.	.	.	.	.	.	16ee-\	.	.	.
.	6	.	.	.	.	.	.	.	.	16dd\	.	.	.
.	.	.	.	.	.	.	.	.	.	16cc\JJ	.	.	.
8D/	.	.	.	.	.	.	.	.	.	8b-\	-tu-	.	.
!LO:TX:a:t=P:mixed beam:problem	!	!	!	!	!	!	!	!	!	!	!	!	!
8C/L	.	.	.	.	.	.	.	.	.	8ee-\	.	.	.
8F\	7	.	.	.	.	.	.	.	.	(16dd\LL	-a-	.	.
.	.	.	.	.	.	.	.	.	.	16cc\JJ)	.	.	.
8BB-/J	.	.	.	.	.	.	.	.	.	8dd\	-le	.	.
=18	=18	=18	=18	=18	=18	=18	=18	=18	=18	=18	=18	=18	=18
!	!	!	!	!	!	!LO:SIC:o=:v: brak kreski takt.	!	!	!	!	!	!	!
4B-\	.	.	.	.	.	8r	.	.	.	2.r	.	.	.
.	.	.	.	.	.	(8d\L	vas	.	.	.	.	.	.
8E-\	.	.	.	.	.	8e-\J)	.	.	.	.	.	.	.
!	!	!	!	!	!	!LO:LB:g=original	!	!	!	!	!	!	!
4D/	6	.	.	.	.	(16f\LL	ho-	.	.	.	.	.	.
.	.	.	.	.	.	16e-\	.	.	.	.	.	.	.
.	.	.	.	.	.	16d\	.	.	.	.	.	.	.
.	.	.	.	.	.	16c\JJ)	.	.	.	.	.	.	.
8D/	.	.	.	.	.	8B-\	-no-	.	.	.	.	.	.
=19	=19	=19	=19	=19	=19	=19	=19	=19	=19	=19	=19	=19	=19
!LO:TX:a:t=P:mixed beam:problem	!	!	!	!	!	!	!	!	!	!LO:N:vis=2	!	!	!
8C/L	7	.	.	.	.	8e-\	-ra-	.	.	4.r	.	.	.
8F\	7	.	.	.	.	(16d\LL	-bi-	.	.	.	.	.	.
.	.	.	.	.	.	16c\JJ)	.	.	.	.	.	.	.
8BB-/J	.	.	.	.	.	8d\	-le	.	.	.	.	.	.
!LO:LB:g=original	!	!	!	!	!	!	!	!	!	!	!	!	!
!LO:TX:a:t=P:mixed beam:problem	!	!	!	!	!	!	!	!	!	!	!	!	!
8F\L	.	.	.	.	.	8r	.	.	.	8r	.	.	.
8FF/J	.	.	.	.	.	(16A/LL	vas	.	.	(16cc\LL	vas	.	.
.	.	.	.	.	.	16F/JJ)	.	.	.	16a\JJ)	.	.	.
8r	.	.	.	.	.	(16G/LL	in-	.	.	(16b-\LL	in-	.	.
.	.	.	.	.	.	16A/JJ)	.	.	.	16cc\JJ)	.	.	.
=20	=20	=20	=20	=20	=20	=20	=20	=20	=20	=20	=20	=20	=20
4.BB-/	.	.	.	.	.	(16B-\LL	-si-	.	.	(16dd\LL	-si-	.	.
.	.	.	.	.	.	16A\JJ)	.	.	.	16cc\JJ)	.	.	.
.	.	.	.	.	.	(16B-\LL	-gne	.	.	(16dd\LL	-gne	.	.
.	.	.	.	.	.	16A\JJ)	.	.	.	16cc\JJ)	.	.	.
.	.	.	.	.	.	(16G\LL	de-	.	.	(16b-\LL	de-	.	.
.	.	.	.	.	.	16B-\JJ)	.	.	.	16dd\JJ)	.	.	.
4C/	7	.	.	.	.	(16c\LL	-vo-	.	.	16ee-\LL	-vo-	.	.
.	.	.	.	.	.	16B-\	.	.	.	16dd\	.	.	.
.	.	.	.	.	.	16c\	.	.	.	16ee-\	.	.	.
.	.	.	.	.	.	16A\JJ)	.	.	.	16cc\JJ	.	.	.
8F\	7	.	.	.	.	(16B-\LL	-ti-	.	.	(16dd\LL	-ti-	.	.
.	.	.	.	.	.	16c\JJ)	.	.	.	16ee-\JJ)	.	.	.
!	!	!	!	!	!	!	!	!	!	!LO:LB:g=original	!	!	!
=21	=21	=21	=21	=21	=21	=21	=21	=21	=21	=21	=21	=21	=21
!LO:TX:a:t=P:mixed beam:problem	!	!	!	!	!	!	!LO:N:vis=00	!	!	!	!	!LO:N:vis=00	!LO:N:vis=00
8BB-/L	.	2.r	2.r	2.r	.	(16d\LL	-o-	0.r	.	16ff\LL	-o-	0.r	0.r
.	.	.	.	.	.	16c\JJ)	.	.	.	16ee-\JJ	.	.	.
8F\	.	.	.	.	.	(16d\LL	-nis	.	.	16ff\LL	-nis	.	.
.	.	.	.	.	.	16A\JJ)	.	.	.	16cc\JJ	.	.	.
8B-\	.	.	.	.	.	8B-\	o-	.	.	8dd\	o-	.	.
8G\	7	.	.	.	.	16B-\	-ra	.	.	16b-\	-ra	.	.
.	.	.	.	.	.	16F/	pro-	.	.	16a\	pro-	.	.
8c\	.	.	.	.	.	8F/L	-no-	.	.	(8a\L	-no-	.	.
8C/J	.	.	.	.	.	8E-/J	.	.	.	16g\L	.	.	.
.	.	.	.	.	.	.	.	.	.	16f\JJ)	.	.	.
=22	=22	=22	=22	=22	=22	=22	=22	=22	=22	=22	=22	=22	=22
4F\	.	8r	8r	8r	.	8F/	-bis	.	.	8f/	-bis	.	.
.	.	8f/L	8a/L	8A\	Ro-	8r	.	.	.	8r	.	.	.
8r	.	8g/J	8b-/J	8G\	-sa	2r	.	.	.	8r	.	.	.
!	!	!	!	!	!	!	!	!	!	!LO:N:vis=2	!	!	!
8F\L	.	16a/LL	16cc/LL	8.F\	mis-	.	.	.	.	4.r	.	.	.
.	.	16g/	16b-/	.	.	.	.	.	.	.	.	.	.
8G\	6	16f/	16a/	.	.	.	.	.	.	.	.	.	.
.	.	16en/J	16g/J	16G\	-ti-	.	.	.	.	.	.	.	.
8A\J	6	8f/J	8f/J	8A\	-ca	.	.	.	.	.	.	.	.
=23	=23	=23	=23	=23	=23	=23	=23	=23	=23	=23	=23	=23	=23
!LO:TX:a:t=P:mixed beam:problem	!	!	!	!	!	!	!	!	!	!	!	!	!
!	!	!	!	!	!	!LO:N:vis=00	!	!	!	!LO:N:vis=00	!	!	!
8B-\L	6	8b-/L	8dd\L	8B-\	Tur-	0.r	.	.	.	0.r	.	.	.
8c\	6	8a/	8cc\	8c\	-ris	.	.	.	.	.	.	.	.
8C\J	4	8g/J	8b-\J	8C/	Da-	.	.	.	.	.	.	.	.
.	3	.	.	.	.	.	.	.	.	.	.	.	.
8F\L	.	8f/L	16a/LL	8.F\	-vi-	.	.	.	.	.	.	.	.
.	.	.	16cc/	.	.	.	.	.	.	.	.	.	.
8A\	6	16a/L	16b-/	.	.	.	.	.	.	.	.	.	.
.	.	16g/	16a/J	16F\	-di-	.	.	.	.	.	.	.	.
8c\J	.	16f/	8g/J	8C/	-ca	.	.	.	.	.	.	.	.
.	.	16en/JJ	.	.	.	.	.	.	.	.	.	.	.
=24	=24	=24	=24	=24	=24	=24	=24	=24	=24	=24	=24	=24	=24
16A\LL	6	8f/L	8r	16A\LL	Tur-	.	.	.	.	.	.	.	.
16B-\JJ	.	.	.	16B-\JJ	.	.	.	.	.	.	.	.	.
!LO:TX:a:t=P:mixed beam:problem	!	!	!	!	!	!	!	!	!	!	!	!	!
8c\L	.	16en/L	16g/LL	8c\	-ris	.	.	.	.	.	.	.	.
.	.	16c/	16en/	.	.	.	.	.	.	.	.	.	.
8C/J	n	16d/	16f/	8C/	e	.	.	.	.	.	.	.	.
.	.	16e/JJ	16g/JJ	.	.	.	.	.	.	.	.	.	.
4F\	.	4f/	16a/LL	8.F\	bur-	.	.	.	.	.	.	.	.
.	.	.	16g/	.	.	.	.	.	.	.	.	.	.
.	.	.	16a/	.	.	.	.	.	.	.	.	.	.
.	.	.	16f/	16F\	-ne-	.	.	.	.	.	.	.	.
8F\	.	8f/	16g/	8F\	-a	.	.	.	.	.	.	.	.
.	.	.	16a/JJ	.	.	.	.	.	.	.	.	.	.
=25	=25	=25	=25	=25	=25	=25	=25	=25	=25	=25	=25	=25	=25
!	!	!	!	!	!	!	!	!	!	!	!	!LO:N:vis=00	!LO:N:vis=00
8E-\L	6_ 5_	16g/LL	16b-/LL	8r	.	.	.	2.r	.	.	.	0.r	0.r
.	.	16f/	16a/	.	.	.	.	.	.	.	.	.	.
8E-\	.	16g/	16b-/	8E-\	Do-	.	.	.	.	.	.	.	.
.	.	16f/	16a/JJ	.	.	.	.	.	.	.	.	.	.
!	!	!	!LO:LB:g=original	!	!	!	!	!	!	!	!	!	!
8E-\J	.	16en/	16g/LL	8E-\	-mus	.	.	.	.	.	.	.	.
.	x	16g/JJ	16b-/JJ	.	.	.	.	.	.	.	.	.	.
4F\	.	16f/LL	16a\LL	8.F\	au-	.	.	.	.	.	.	.	.
.	.	16g/	16b-\	.	.	.	.	.	.	.	.	.	.
.	.	16f/	16a\	.	.	.	.	.	.	.	.	.	.
.	.	16g/J	16b-\	16F\	-re-	.	.	.	.	.	.	.	.
8A\	6	8f/J	16cc\	8A\	-a	.	.	.	.	.	.	.	.
.	.	.	16a\JJ	.	.	.	.	.	.	.	.	.	.
!LO:LB:g=original	!	!	!	!LO:LB:g=original	!	!	!	!	!	!	!	!	!
=26	=26	=26	=26	=26	=26	=26	=26	=26	=26	=26	=26	=26	=26
!LO:TX:a:t=P:mixed beam:problem	!	!	!LO:TX:a:t=P:mixed beam:problem	!	!	!	!	!LO:N:vis=2	!	!	!	!	!
8B-\L	6 5	8d/L	16dd\LL	8B-\	o-	.	.	4.r	.	.	.	.	.
.	.	.	16g/JJ	.	.	.	.	.	.	.	.	.	.
8c\	.	8f/	8a/L	8c\	-ra	.	.	.	.	.	.	.	.
8C/J	4	8en/J	16g/L	8C/	pro-	.	.	.	.	.	.	.	.
.	3	.	16f/JJ	.	.	.	.	.	.	.	.	.	.
4F\	.	4f/	4f/	8F\	-no-	.	.	8.a\	Foe-	.	.	.	.
.	.	.	.	8F\	-bis	.	.	.	.	.	.	.	.
.	.	.	.	.	.	.	.	16g\	-de-	.	.	.	.
8F\	.	8r	8r	8r	.	.	.	8f\	-ris	.	.	.	.
=27	=27	=27	=27	=27	=27	=27	=27	=27	=27	=27	=27	=27	=27
!	!	!LO:TX:a:t=5	!	!	!	!	!	!	!	!	!	!	!
!	!	!LO:N:vis=00	!LO:N:vis=00	!LO:N:vis=00	!	!LO:N:vis=00	!	!	!	!LO:N:vis=00	!	!	!
8En\L	6	0.r	0.r	0.r	.	0.r	.	16g\LL	ar-	0.r	.	.	.
.	.	.	.	.	.	.	.	16f\	.	.	.	.	.
16C\L	.	.	.	.	.	.	.	16en\	.	.	.	.	.
16D\J	.	.	.	.	.	.	.	16d\JJ	.	.	.	.	.
8En\J	.	.	.	.	.	.	.	8c/	-ca	.	.	.	.
!LO:TX:a:t=P:mixed beam:problem	!	!	!	!	!	!	!	!	!	!	!	!	!
8D\L	.	.	.	.	.	.	.	16f\LL	Ia-	.	.	.	.
.	.	.	.	.	.	.	.	16en\JJ	.	.	.	.	.
8G\	.	.	.	.	.	.	.	(16d\LL	-nu-	.	.	.	.
.	.	.	.	.	.	.	.	16e-X\JJ)	.	.	.	.	.
8GG/J	.	.	.	.	.	.	.	(16f\LL	-a	.	.	.	.
.	.	.	.	.	.	.	.	16g\JJ)	.	.	.	.	.
=28	=28	=28	=28	=28	=28	=28	=28	=28	=28	=28	=28	=28	=28
8C/L	.	.	.	.	.	.	.	8.en\L	cae-	.	.	.	.
16C/L	n	.	.	.	.	.	.	.	.	.	.	.	.
16D/J	.	.	.	.	.	.	.	16d\Jk	.	.	.	.	.
8En/J	6	.	.	.	.	.	.	8c/	-li	.	.	.	.
8F\L	.	.	.	.	.	.	.	8r	.	.	.	.	.
16E-X\L	6_	.	.	.	.	.	.	8g\	Stel-	.	.	.	.
16D\	.	.	.	.	.	.	.	.	.	.	.	.	.
16E-\	.	.	.	.	.	.	.	8cc\	-la	.	.	.	.
16C\JJ	x	.	.	.	.	.	.	.	.	.	.	.	.
=29	=29	=29	=29	=29	=29	=29	=29	=29	=29	=29	=29	=29	=29
!	!	!	!	!	!	!	!	!	!	!	!	!LO:N:vis=0	!LO:N:vis=0
8F\L	.	.	.	.	.	.	.	8.a\	stel-	.	.	1.r	1.r
16F\L	.	.	.	.	.	.	.	.	.	.	.	.	.
16E-\J	.	.	.	.	.	.	.	16a\	-la	.	.	.	.
8D\J	.	.	.	.	.	.	.	(16b-\LL	ma-	.	.	.	.
.	.	.	.	.	.	.	.	16f\JJ)	.	.	.	.	.
!LO:TX:a:t=P:mixed beam:problem	!	!	!	!	!	!	!	!	!	!	!	!	!
8E-\L	.	.	.	.	.	.	.	(16g\LL	-tu-	.	.	.	.
.	.	.	.	.	.	.	.	16c\JJ)	.	.	.	.	.
8F\	.	.	.	.	.	.	.	(8d\L	-ti-	.	.	.	.
8FF/J	5 4	.	.	.	.	.	.	16c\L	.	.	.	.	.
.	x 3	.	.	.	.	.	.	16B-\JJ)	.	.	.	.	.
=30	=30	=30	=30	=30	=30	=30	=30	=30	=30	=30	=30	=30	=30
4BB-/	.	.	.	.	.	.	.	8B-/	-na	.	.	.	.
.	.	.	.	.	.	.	.	8d\	o-	.	.	.	.
8C/	.	.	.	.	.	.	.	8e-\	-ra	.	.	.	.
8D/L	.	.	.	.	.	.	.	(16f\LL	o-	.	.	.	.
.	.	.	.	.	.	.	.	16e-\	.	.	.	.	.
16BB-/L	.	.	.	.	.	.	.	16d\	.	.	.	.	.
16C/J	.	.	.	.	.	.	.	16c\JJ)	.	.	.	.	.
8D/J	.	.	.	.	.	.	.	8B-/	-ra	.	.	.	.
=31	=31	=31	=31	=31	=31	=31	=31	=31	=31	=31	=31	=31	=31
!	!	!	!	!LO:N:vis=00	!	!LO:N:vis=00	!	!	!	!LO:N:vis=00	!	!	!
8E-\L	.	2.r	2.r	0.r	.	0.r	.	(16g\LL	o-	0.r	.	2.r	2.r
.	.	.	.	.	.	.	.	16f\	.	.	.	.	.
16C\L	.	.	.	.	.	.	.	16e-\	.	.	.	.	.
16D\J	.	.	.	.	.	.	.	16d\JJ)	.	.	.	.	.
!	!	!	!	!	!	!	!	!LO:LB:g=original	!	!	!	!	!
8En\J	6	.	.	.	.	.	.	8c/	-ra	.	.	.	.
8F\L	.	.	.	.	.	.	.	(16d\LL	pro-	.	.	.	.
.	.	.	.	.	.	.	.	16c\JJ)	.	.	.	.	.
8E-X\	6	.	.	.	.	.	.	4c\	-no-	.	.	.	.
8F\J	.	.	.	.	.	.	.	.	.	.	.	.	.
!	!	!LO:PB:g=original	!	!	!	!	!	!	!	!	!	!	!
=32	=32	=32	=32	=32	=32	=32	=32	=32	=32	=32	=32	=32	=32
8BB-/	.	8r	8r	.	.	.	.	4.B-/	-bis	.	.	8r	8r
8r	.	8b-\L	8dd\L	.	.	.	.	.	.	.	.	8b-\L	8dd\L
8r	.	8cc\J	8ee-\J	.	.	.	.	.	.	.	.	8cc\J	8ee-\J
!	!	!	!	!	!	!	!	!LO:N:vis=2	!	!	!	!	!
8BB-/L	.	16dd\LL	16ff\LL	.	.	.	.	4.r	.	.	.	16dd\LL	16ff\LL
.	.	16cc\	16ee-\	.	.	.	.	.	.	.	.	16cc\	16ee-\
8C/	.	16b-\	16dd\	.	.	.	.	.	.	.	.	16b-\	16dd\
.	.	16a\J	16cc\J	.	.	.	.	.	.	.	.	16f\J	16cc\J
8D/J	.	8b-\J	8b-\J	.	.	.	.	.	.	.	.	8d\J	8b-\J
=33	=33	=33	=33	=33	=33	=33	=33	=33	=33	=33	=33	=33	=33
!LO:TX:a:t=P:mixed beam:problem	!	!	!	!	!	!	!LO:N:vis=0	!	!	!	!	!	!
8E-\L	6 5	8ee-\L	8gg\L	.	.	.	.	1.r	.	.	.	8ee-\L	8gg\L
8F\	.	8dd\	8ff\	.	.	.	.	.	.	.	.	8dd\	8ff\
8FF/J	4	8cc\J	8ee-\J	.	.	.	.	.	.	.	.	8cc\J	8ee-\J
.	3	.	.	.	.	.	.	.	.	.	.	.	.
8BB-/L	.	8b-/L	16dd\LL	.	.	.	.	.	.	.	.	16b-/LL	16dd\LL
.	.	.	16cc\	.	.	.	.	.	.	.	.	16f/	16cc\
16BB-/L	.	8f/	16b-\	.	.	.	.	.	.	.	.	16b-/	16dd\
16C/J	.	.	16a\J	.	.	.	.	.	.	.	.	16f/J	16cc\J
8D/J	.	8f/J	8b-\J	.	.	.	.	.	.	.	.	8d/J	8b-\J
=34	=34	=34	=34	=34	=34	=34	=34	=34	=34	=34	=34	=34	=34
!LO:TX:a:t=P:mixed beam:problem	!	!	!LO:TX:a:t=P:mixed beam:problem	!	!	!	!	!	!	!	!	!	!
8E-\L	6	8g/L	8cc\L	.	.	.	.	.	.	.	.	8f/L	8cc\L
8F\	.	8c/	8f/	.	.	.	.	.	.	.	.	16f/L	8.ccM\
.	.	.	.	.	.	.	.	.	.	.	.	16d/	.
8FF/J	5 4	8f/J	8a/J	.	.	.	.	.	.	.	.	16B-/	.
.	x 3	.	.	.	.	.	.	.	.	.	.	16f/JJ	16b-\Jk
!	!	!	!	!	!	!	!	!	!	!	!	!	!LO:SIC:o=:v: ogonek z lw. str.
8BB-/	.	8d/	8b-/	.	.	.	.	.	.	.	.	8d/	8b-\
8r	.	8r	8r	.	.	.	.	.	.	.	.	8r	8r
8r	.	8r	8r	.	.	.	.	.	.	.	.	8r	8r
=35	=35	=35	=35	=35	=35	=35	=35	=35	=35	=35	=35	=35	=35
!LO:SIC:o=:v:partia kończy się w t. 34 zbędne pauzy w parti tenore	!	!LO:SIC:o=:v:partia kończy się w t. 34 zbędne pauzy w parti tenore	!LO:SIC:o=:v:partia kończy się w t. 34 zbędne pauzy w parti tenore	!LO:SIC:o=:v:partia kończy się w t. 34 zbędne pauzy w parti tenore	!	!LO:SIC:o=:v:zbędne takty 35-38	!	!LO:SIC:o=:v:partia kończy się w t. 34 zbędne pauzy w parti tenore	!	!LO:SIC:o=:v: partia kończy się w t. 34	!	!LO:SIC:o=:v:partia kończy się w t. 34 zbędne pauzy w parti tenore	!LO:SIC:o=:v:partia kończy się w t. 34 zbędne pauzy w parti tenore
2.ryy	.	2.ryy	2.ryy	2.ryy	.	2.r	.	2.ryy	.	2.ryy	.	2.ryy	2.ryy
=36	=36	=36	=36	=36	=36	=36	=36	=36	=36	=36	=36	=36	=36
2.ryy	.	2.ryy	2.ryy	2.ryy	.	2.r	.	2.ryy	.	2.ryy	.	2.ryy	2.ryy
=37	=37	=37	=37	=37	=37	=37	=37	=37	=37	=37	=37	=37	=37
2.ryy	.	2.ryy	2.ryy	2.ryy	.	2.r	.	2.ryy	.	2.ryy	.	2.ryy	2.ryy
=38	=38	=38	=38	=38	=38	=38	=38	=38	=38	=38	=38	=38	=38
2.ryy	.	2.ryy	2.ryy	2.ryy	.	2.r	.	2.ryy	.	2.ryy	.	2.ryy	2.ryy
==	==	==	==	==	==	==	==	==	==	==	==	==	==
*-	*-	*-	*-	*-	*-	*-	*-	*-	*-	*-	*-	*-	*-
!!!system-decoration: [(s1,s2)][(s3,s4,s5,s6)][(s7,s8,s9)]
!!!RDF**kern: > = above
!!!RDF**kern: < = below
!!!ENC: Marcin Jachim
!!!END: 2020-05-03
!!!EED: Leszek Kubiak
!!!EST: 2020-11-04
